X: 174
T:Friends and .()....y. HA.173
M:6/4
L:1/4
Q:100
S:Henry Atkinson's original MS,Hartburn,N'umberland,1694.
O:England
A:Hartburn,Northumberland
N:One of the tunes that feels more like 3/4..CGP.
H:1/4
Z:vmp.Neil Brookes, Jan.2004
K:F
BGgd e/2f/2 g|f e/2f/2 gfdc|BGgd e/2f/2 g|fdBc2d:|!
|:gddfcc|dBBf2d|gddfcf|dcBc2d:|!
|:BGBd B/c/d/B/|d/c/B/c/d/B/ d/c/B/c/d/B/|!
BGBd B/c/d/B/|fdBc2d:|!
|:gddfcc|dBBf2d|gddfcf|dcBc2d:|]
